Adwaita++/apps/16/org.gnome.dfeet.svg

<svg height="16" viewBox="0 0 16 16" width="16" xmlns="http://www.w3.org/2000/svg">
  <g fill="#444" transform="translate(0 -1106.5197)">
    <path d="m10 1109.5197c-1.108 0-2 .892-2 2v3h4v-3c0-1.108-.892-2-2-2z"/>
    <path d="m10 1118.5197c-1.108 0-2-.892-2-2v-1h4v1c0 1.108-.892 2-2 2z"/>
    <path d="m4 1112.5197c1.108 0 2 .892 2 2v3h-.72266c-.94474-.8696-1.54492-2.1073-1.54492-3.5 0-.5283.10678-1.026.26367-1.5h.004zm-1.98242 1.834c.0597 1.1613.42327 2.2424 1.01758 3.166h-1.03516v-3c0-.057.013-.1103.0176-.166z"/>
    <path d="m8.5 0c-4.130291 0-7.5 3.3697-7.5 7.5 0 1.5628162.4830998 3.015066 1.3066406 4.21875l-2.3066406 2.28125v2h2l2.296875-2.296875c1.2005375.816839 2.6472777 1.296875 4.203125 1.296875 4.130291 0 7.5-3.3697 7.5-7.5s-3.369709-7.5-7.5-7.5zm0 2c3.049411 0 5.5 2.4506 5.5 5.5s-2.450589 5.5-5.5 5.5c-3.0494108 0-5.5-2.4506-5.5-5.5s2.4505892-5.5 5.5-5.5z" transform="translate(0 1106.5197)"/>
  </g>
</svg>

<svg xmlns="http://www.w3.org/2000/svg" width="16" height="16" version="1.1" viewBox="0 0 16 16">
 <g id="magnifying glass" fill="#444" transform="translate(0,-1106.5197)">
  <path d="m 10,1109.5197 c -1.108,0 -2,0.892 -2,2 v 3 h 4 v -3 c 0,-1.108 -0.892,-2 -2,-2 z"/>
  <path d="m 10,1118.5197 c -1.108,0 -2,-0.892 -2,-2 v -1 h 4 v 1 c 0,1.108 -0.892,2 -2,2 z"/>
  <path d="m 4,1112.5197 c 1.108,0 2,0.892 2,2 v 3 H 5.27734 c -0.94474,-0.8696 -1.54492,-2.1073 -1.54492,-3.5 0,-0.5283 0.10678,-1.026 0.26367,-1.5 10e-4,0 0.003,0 0.004,0 z m -1.98242,1.834 c 0.0597,1.1613 0.42327,2.2424 1.01758,3.166 H 2 v -3 c 0,-0.057 0.013,-0.1103 0.0176,-0.166 z"/>
  <path d="M 8.5 0 C 4.369709 0 1 3.3697 1 7.5 C 1 9.0628162 1.4830998 10.515066 2.3066406 11.71875 L 0 14 L 0 16 L 2 16 L 4.296875 13.703125 C 5.4974125 14.519964 6.9441527 15 8.5 15 C 12.630291 15 16 11.6303 16 7.5 C 16 3.3697 12.630291 0 8.5 0 z M 8.5 2 C 11.549411 2 14 4.4506 14 7.5 C 14 10.5494 11.549411 13 8.5 13 C 5.4505892 13 3 10.5494 3 7.5 C 3 4.4506 5.4505892 2 8.5 2 z" transform="translate(0,1106.5197)"/>
 </g>
</svg>
